findly-builder/apps/searchassist/src/assets/images/Gray-Close-withBorder.svg

<svg width="36" height="36" viewBox="0 0 36 36" fill="none" xmlns="http://www.w3.org/2000/svg">
<rect x="0.5" y="0.5" width="35" height="35" rx="3.5" fill="#F8F9FA"/>
<path d="M13.7266 13.0234L13.0234 13.7266L17.293 18L13.0234 22.2695L13.7266 22.9805L18 18.707L22.2695 22.9805L22.9805 22.2695L18.707 18L22.9805 13.7266L22.2695 13.0234L18 17.293L13.7266 13.0234Z" fill="black"/>
<rect x="0.5" y="0.5" width="35" height="35" rx="3.5" stroke="#BDC1C6"/>
</svg>

<svg width="36" height="36" fill="none" xmlns="http://www.w3.org/2000/svg"><rect x=".5" y=".5" width="35" height="35" rx="3.5" fill="#F8F9FA"/><path d="m13.727 13.023-.704.704L17.293 18l-4.27 4.27.704.71L18 18.707l4.27 4.273.71-.71L18.707 18l4.273-4.273-.71-.704-4.27 4.27-4.273-4.27Z" fill="#000"/><rect x=".5" y=".5" width="35" height="35" rx="3.5" stroke="#BDC1C6"/></svg>
